ufans-frontend-package/public/assets/images/new-home/icon/gender.svg

<svg width="96" height="96" viewBox="0 0 96 96" fill="none" xmlns="http://www.w3.org/2000/svg">
<path d="M76.2578 36.08V29.6426H80.1353V21.4998H76.2578V15.6836H66.564V21.4998H62.2988V29.6426H66.564V36.011C55.3193 38.1979 46.5635 48.25 46.5635 60.2908C46.5635 73.9249 57.688 85.0172 71.3221 85.0172C84.9566 85.0172 96.0005 73.9252 96.0005 60.2908C96.0005 48.3802 87.5025 38.4112 76.2578 36.08ZM71.3547 75.3231C63.0657 75.3231 56.322 68.5793 56.322 60.2904C56.322 52.0011 63.0657 45.2573 71.3547 45.2573C79.644 45.2573 86.3878 52.0011 86.3878 60.2904C86.3874 68.5797 79.644 75.3231 71.3547 75.3231Z" fill="#6661E7"/>
<path d="M49.4696 35.4413C49.4696 21.8072 38.4098 10.7148 24.7753 10.7148C11.1408 10.7148 0 21.8072 0 35.4413C0 47.4879 8.78875 57.5442 20.0335 59.7242V70.5773L16.8602 67.8409L11.6368 74.0601L24.9347 85.2835L38.6358 74.1043L33.4256 67.7963L29.7277 70.7657V59.6474C40.972 57.3104 49.4696 47.3456 49.4696 35.4413ZM9.77441 35.4413C9.77441 27.1524 16.5182 20.4086 24.8075 20.4086C33.0968 20.4086 39.8406 27.1524 39.8406 35.4413C39.8406 43.7306 33.0968 50.4744 24.8075 50.4744C16.5182 50.4744 9.77441 43.7306 9.77441 35.4413Z" fill="#6661E7"/>
</svg>

<svg xmlns="http://www.w3.org/2000/svg" width="96" height="74.569" viewBox="0 0 96 74.569">
  <g id="gender" transform="translate(0 -10.715)">
    <path id="Path_1" data-name="Path 1" d="M76.258,36.08V29.643h3.878V21.5H76.258V15.684H66.564V21.5H62.3v8.143h4.265v6.368a24.762,24.762,0,1,0,9.694.069Zm-4.9,39.243A15.033,15.033,0,1,1,86.388,60.29,15.05,15.05,0,0,1,71.355,75.323Z" fill="#e44499"/>
    <path id="Path_2" data-name="Path 2" d="M49.47,35.441A24.735,24.735,0,1,0,20.034,59.724V70.577L16.86,67.841,11.637,74.06l13.3,11.223L38.636,74.1,33.426,67.8l-3.7,2.969V59.647A24.8,24.8,0,0,0,49.47,35.441Zm-39.7,0A15.033,15.033,0,1,1,24.808,50.474,15.05,15.05,0,0,1,9.774,35.441Z" fill="#e44499"/>
  </g>
</svg>
